X: 1689
T: The Humors of Enniskean
M:2/4
L:1/16
B:O'Neill's 1689
N:"collected by F.O'Neill"
K:G
D2 \
| GFGBedBG | AGABAGED | GFGBed^cd | (3efg fed2g-a |
| bgaf gfed | (3efg dBAFED | GABcdBge | dBAB G2 :|
|: g-a \
| babg agef | gfge dBGB | cBAB cdef | agfed2g-a |
| babg agef | gfge dBGB | GABc dBgg | agfag2 :|


